images/portal/4225.svg

<svg class="highcharts-root" xmlns="http://www.w3.org/2000/svg" width="485" height="415" font-family="arial" font-size="12">
    <defs>
        <clipPath id="a">
            <path fill="none" d="M0 0h422v241H0z"/>
        </clipPath>
    </defs>
    <rect fill="#fbfbfb" class="highcharts-background" width="485" height="415" rx="0" ry="0"/>
    <path fill="none" class="highcharts-plot-background" d="M53 90h422v241H53z"/>
    <text transform="translate(10 451)" class="highcharts-label" cursor="pointer">
        <tspan>&gt; Indikator-Details</tspan>
    </text>
    <g class="highcharts-grid highcharts-xaxis-grid">
        <path fill="none" class="highcharts-grid-line" d="M60.5 90v241m34-241v241m34-241v241m34-241v241m33-241v241m34-241v241m34-241v241m34-241v241m34-241v241m33-241v241m34-241v241m34-241v241m34-241v241"/>
    </g>
    <g class="highcharts-grid highcharts-yaxis-grid">
        <path fill="none" stroke="#e6e6e6" class="highcharts-grid-line" d="M53 331.5h422m-422-60h422m-422-60h422m-422-61h422m-422-61h422"/>
    </g>
    <path fill="none" class="highcharts-plot-border" d="M53 90h422v241H53z"/>
    <g class="highcharts-axis highcharts-xaxis">
        <path fill="none" class="highcharts-axis-line" stroke="#ccd6eb" d="M53 331.5h422"/>
    </g>
    <g class="highcharts-axis highcharts-yaxis">
        <path fill="none" class="highcharts-axis-line" d="M53 90v241"/>
    </g>
    <g class="highcharts-axis highcharts-yaxis">
        <path fill="none" class="highcharts-axis-line" d="M475 90v241"/>
    </g>
    <g class="highcharts-series-group">
        <g class="highcharts-series highcharts-series-0 highcharts-line-series highcharts-color-undefined" transform="translate(53 90)" clip-path="url(#a)">
            <path fill="none" d="M92.84 32.776l84.4 1.205 67.52-2.169 101.28 17.593 33.76 7.953 33.76 9.399" class="highcharts-graph" stroke="#FF8028" stroke-width="2" stroke-linejoin="round" stroke-linecap="round"/>
        </g>
        <g class="highcharts-series highcharts-series-1 highcharts-line-series highcharts-color-undefined" transform="translate(53 90)" clip-path="url(#a)">
            <path fill="none" d="M8.44 17.834l84.4 11.086 84.4 7.23L211 32.535l33.76.241h33.76l67.52-.723 33.76 6.025 33.76 2.169" class="highcharts-graph" stroke="#B375AB" stroke-width="2" stroke-linejoin="round" stroke-linecap="round"/>
        </g>
    </g>
    <text x="10" class="highcharts-title" y="20" color="#000" font-size="1.1em" font-weight="700">
        <tspan>Energieimportabhängigkeit</tspan>
    </text>
    <text x="10" class="highcharts-subtitle" y="38" color="#000" font-size=".9em">
        <tspan>Prozent</tspan>
    </text>
    <g class="highcharts-legend" transform="translate(10 40)">
        <rect fill="none" class="highcharts-legend-box" rx="0" ry="0" width="323" height="38"/>
        <g class="highcharts-legend-item highcharts-line-series highcharts-color-undefined highcharts-series-0">
            <path fill="none" d="M12 18h16" class="highcharts-graph" stroke="#FF8028" stroke-width="2"/>
            <text x="21" y="15" color="#333" font-size="1em" font-weight="400" cursor="pointer" fill="#333" transform="translate(12 7)">
                <tspan>Kanton Basel-Stadt</tspan>
            </text>
        </g>
        <g class="highcharts-legend-item highcharts-line-series highcharts-color-undefined highcharts-series-1">
            <path fill="none" d="M156.328 18h16" class="highcharts-graph" stroke="#B375AB" stroke-width="2"/>
            <text x="21" y="15" color="#333" font-size="1em" font-weight="400" cursor="pointer" fill="#333" transform="translate(156.328 7)">
                <tspan>Kanton Basel-Landschaft</tspan>
            </text>
        </g>
    </g>
    <g class="highcharts-axis-labels highcharts-xaxis-labels" text-anchor="end" color="#000" cursor="default" font-size=".9em">
        <text x="64.033" transform="rotate(-45 64.033 347)" y="347">
            <tspan>1990</tspan>
        </text>
        <text x="97.793" transform="rotate(-45 97.793 347)" y="347">
            <tspan>1992</tspan>
        </text>
        <text x="131.553" transform="rotate(-45 131.553 347)" y="347">
            <tspan>1994</tspan>
        </text>
        <text x="165.313" transform="rotate(-45 165.313 347)" y="347">
            <tspan>1996</tspan>
        </text>
        <text x="199.073" transform="rotate(-45 199.073 347)" y="347">
            <tspan>1998</tspan>
        </text>
        <text x="232.833" transform="rotate(-45 232.833 347)" y="347">
            <tspan>2000</tspan>
        </text>
        <text x="266.593" transform="rotate(-45 266.593 347)" y="347">
            <tspan>2002</tspan>
        </text>
        <text x="300.353" transform="rotate(-45 300.353 347)" y="347">
            <tspan>2004</tspan>
        </text>
        <text x="334.113" transform="rotate(-45 334.113 347)" y="347">
            <tspan>2006</tspan>
        </text>
        <text x="367.873" transform="rotate(-45 367.873 347)" y="347">
            <tspan>2008</tspan>
        </text>
        <text x="401.633" transform="rotate(-45 401.633 347)" y="347">
            <tspan>2010</tspan>
        </text>
        <text x="435.393" transform="rotate(-45 435.393 347)" y="347">
            <tspan>2012</tspan>
        </text>
        <text x="469.153" transform="rotate(-45 469.153 347)" y="347">
            <tspan>2014</tspan>
        </text>
    </g>
    <g class="highcharts-axis-labels highcharts-yaxis-labels" text-anchor="end" color="#000" cursor="default" font-size=".9em">
        <text x="38" y="336">
            <tspan>0%</tspan>
        </text>
        <text x="38" y="275">
            <tspan>25%</tspan>
        </text>
        <text x="38" y="215">
            <tspan>50%</tspan>
        </text>
        <text x="38" y="155">
            <tspan>75%</tspan>
        </text>
        <text x="38" y="95">
            <tspan>100%</tspan>
        </text>
    </g>
    <text x="10" class="highcharts-credits" y="400" cursor="default" color="#000" font-size=".8em">
        <tspan>Quelle: Statistisches Amt Basel-Stadt; Statistisches Amt Basel-Landschaft</tspan>
    </text>
</svg>

<?xml version="1.0" standalone="no"?><!DOCTYPE svg PUBLIC "-//W3C//DTD SVG 1.1//EN" "http://www.w3.org/Graphics/SVG/1.1/DTD/svg11.dtd"><svg xmlns:xlink="http://www.w3.org/1999/xlink" version="1.1" class="highcharts-root" style="font-family:arial;font-size:9pt;" xmlns="http://www.w3.org/2000/svg" width="485" height="415"><desc>Created with Highstock 5.0.14</desc><defs><clipPath id="highcharts-givhdr6-7"><rect x="0" y="0" width="422" height="241" fill="none"></rect></clipPath><clipPath id="highcharts-givhdr6-8"><rect x="0" y="0" width="422" height="241" fill="none"></rect></clipPath></defs><rect fill="#fbfbfb" class="highcharts-background" x="0" y="0" width="485" height="415" rx="0" ry="0"></rect><rect fill="none" class="highcharts-plot-background" x="53" y="90" width="422" height="241"></rect><g class="highcharts-label" style="cursor:pointer;" transform="translate(10,451)"><text x="0" y="0"><tspan>&gt; Indikator-Details</tspan></text></g><g class="highcharts-pane-group"></g><g class="highcharts-grid highcharts-xaxis-grid "><path fill="none" class="highcharts-grid-line" d="M 60.5 90 L 60.5 331" opacity="1"></path><path fill="none" class="highcharts-grid-line" d="M 94.5 90 L 94.5 331" opacity="1"></path><path fill="none" class="highcharts-grid-line" d="M 128.5 90 L 128.5 331" opacity="1"></path><path fill="none" class="highcharts-grid-line" d="M 162.5 90 L 162.5 331" opacity="1"></path><path fill="none" class="highcharts-grid-line" d="M 195.5 90 L 195.5 331" opacity="1"></path><path fill="none" class="highcharts-grid-line" d="M 229.5 90 L 229.5 331" opacity="1"></path><path fill="none" class="highcharts-grid-line" d="M 263.5 90 L 263.5 331" opacity="1"></path><path fill="none" class="highcharts-grid-line" d="M 297.5 90 L 297.5 331" opacity="1"></path><path fill="none" class="highcharts-grid-line" d="M 331.5 90 L 331.5 331" opacity="1"></path><path fill="none" class="highcharts-grid-line" d="M 364.5 90 L 364.5 331" opacity="1"></path><path fill="none" class="highcharts-grid-line" d="M 398.5 90 L 398.5 331" opacity="1"></path><path fill="none" class="highcharts-grid-line" d="M 432.5 90 L 432.5 331" opacity="1"></path><path fill="none" class="highcharts-grid-line" d="M 466.5 90 L 466.5 331" opacity="1"></path></g><g class="highcharts-grid highcharts-yaxis-grid "><path fill="none" stroke="#e6e6e6" stroke-width="1" class="highcharts-grid-line" d="M 53 331.5 L 475 331.5" opacity="1"></path><path fill="none" stroke="#e6e6e6" stroke-width="1" class="highcharts-grid-line" d="M 53 271.5 L 475 271.5" opacity="1"></path><path fill="none" stroke="#e6e6e6" stroke-width="1" class="highcharts-grid-line" d="M 53 211.5 L 475 211.5" opacity="1"></path><path fill="none" stroke="#e6e6e6" stroke-width="1" class="highcharts-grid-line" d="M 53 150.5 L 475 150.5" opacity="1"></path><path fill="none" stroke="#e6e6e6" stroke-width="1" class="highcharts-grid-line" d="M 53 89.5 L 475 89.5" opacity="1"></path></g><g class="highcharts-grid highcharts-yaxis-grid "></g><rect fill="none" class="highcharts-plot-border" x="53" y="90" width="422" height="241"></rect><g class="highcharts-axis highcharts-xaxis "><path fill="none" class="highcharts-axis-line" stroke="#ccd6eb" stroke-width="1" d="M 53 331.5 L 475 331.5"></path></g><g class="highcharts-axis highcharts-yaxis "><path fill="none" class="highcharts-axis-line" d="M 53 90 L 53 331"></path></g><g class="highcharts-axis highcharts-yaxis "><path fill="none" class="highcharts-axis-line" d="M 475 90 L 475 331"></path></g><g class="highcharts-series-group"><g class="highcharts-series highcharts-series-0 highcharts-line-series highcharts-color-undefined " transform="translate(53,90) scale(1 1)" clip-path="url(#highcharts-givhdr6-8)"><path fill="none" d="M 92.84 32.77599999999998 L 177.24 33.980999999999966 L 244.76 31.811999999999983 L 346.04 49.405 L 379.8 57.357999999999976 L 413.56 66.757" class="highcharts-graph" stroke="#FF8028" stroke-width="2" stroke-linejoin="round" stroke-linecap="round"></path></g><g class="highcharts-markers highcharts-series-0 highcharts-line-series highcharts-color-undefined " transform="translate(53,90) scale(1 1)" clip-path="none"></g><g class="highcharts-series highcharts-series-1 highcharts-line-series highcharts-color-undefined " transform="translate(53,90) scale(1 1)" clip-path="url(#highcharts-givhdr6-8)"><path fill="none" d="M 8.44 17.834000000000003 L 92.84 28.919999999999987 L 177.24 36.14999999999998 L 211 32.535 L 244.76 32.77599999999998 L 278.52 32.77599999999998 L 346.04 32.05299999999997 L 379.8 38.077999999999975 L 413.56 40.246999999999986" class="highcharts-graph" stroke="#B375AB" stroke-width="2" stroke-linejoin="round" stroke-linecap="round"></path></g><g class="highcharts-markers highcharts-series-1 highcharts-line-series highcharts-color-undefined " transform="translate(53,90) scale(1 1)" clip-path="none"></g></g><text x="10" text-anchor="start" class="highcharts-title" style="color:#000000;font-size:1.1em;font-weight:bold;fill:#000000;" y="20"><tspan>Energieimportabhängigkeit</tspan></text><text x="10" text-anchor="start" class="highcharts-subtitle" style="color:#000000;font-size:0.9em;fill:#000000;" y="38"><tspan>Prozent</tspan></text><g class="highcharts-legend" transform="translate(10,40)"><rect fill="none" class="highcharts-legend-box" rx="0" ry="0" x="0" y="0" width="323" height="38" visibility="visible"></rect><g><g><g class="highcharts-legend-item highcharts-line-series highcharts-color-undefined highcharts-series-0" transform="translate(12,7)"><path fill="none" d="M 0 11 L 16 11" class="highcharts-graph" stroke="#FF8028" stroke-width="2"></path><text x="21" style="color:#333333;font-size:1em;font-weight:normal;cursor:pointer;fill:#333333;" text-anchor="start" y="15"><tspan>Kanton Basel-Stadt</tspan></text></g><g class="highcharts-legend-item highcharts-line-series highcharts-color-undefined highcharts-series-1" transform="translate(156.328125,7)"><path fill="none" d="M 0 11 L 16 11" class="highcharts-graph" stroke="#B375AB" stroke-width="2"></path><text x="21" y="15" style="color:#333333;font-size:1em;font-weight:normal;cursor:pointer;fill:#333333;" text-anchor="start"><tspan>Kanton Basel-Landschaft</tspan></text></g></g></g></g><g class="highcharts-axis-labels highcharts-xaxis-labels "><text x="64.03272486435067" style="color:#000000;cursor:default;font-size:0.9em;fill:#000000;" text-anchor="end" transform="translate(0,0) rotate(-45 64.03272486435067 347)" y="347" opacity="1"><tspan>1990</tspan></text><text x="97.79272486435066" style="color:#000000;cursor:default;font-size:0.9em;fill:#000000;" text-anchor="end" transform="translate(0,0) rotate(-45 97.79272486435066 347)" y="347" opacity="1"><tspan>1992</tspan></text><text x="131.55272486435067" style="color:#000000;cursor:default;font-size:0.9em;fill:#000000;" text-anchor="end" transform="translate(0,0) rotate(-45 131.55272486435067 347)" y="347" opacity="1"><tspan>1994</tspan></text><text x="165.31272486435068" style="color:#000000;cursor:default;font-size:0.9em;fill:#000000;" text-anchor="end" transform="translate(0,0) rotate(-45 165.31272486435068 347)" y="347" opacity="1"><tspan>1996</tspan></text><text x="199.07272486435068" style="color:#000000;cursor:default;font-size:0.9em;fill:#000000;" text-anchor="end" transform="translate(0,0) rotate(-45 199.07272486435068 347)" y="347" opacity="1"><tspan>1998</tspan></text><text x="232.83272486435067" style="color:#000000;cursor:default;font-size:0.9em;fill:#000000;" text-anchor="end" transform="translate(0,0) rotate(-45 232.83272486435067 347)" y="347" opacity="1"><tspan>2000</tspan></text><text x="266.59272486435066" style="color:#000000;cursor:default;font-size:0.9em;fill:#000000;" text-anchor="end" transform="translate(0,0) rotate(-45 266.59272486435066 347)" y="347" opacity="1"><tspan>2002</tspan></text><text x="300.35272486435065" style="color:#000000;cursor:default;font-size:0.9em;fill:#000000;" text-anchor="end" transform="translate(0,0) rotate(-45 300.35272486435065 347)" y="347" opacity="1"><tspan>2004</tspan></text><text x="334.11272486435064" style="color:#000000;cursor:default;font-size:0.9em;fill:#000000;" text-anchor="end" transform="translate(0,0) rotate(-45 334.11272486435064 347)" y="347" opacity="1"><tspan>2006</tspan></text><text x="367.87272486435063" style="color:#000000;cursor:default;font-size:0.9em;fill:#000000;" text-anchor="end" transform="translate(0,0) rotate(-45 367.87272486435063 347)" y="347" opacity="1"><tspan>2008</tspan></text><text x="401.6327248643506" style="color:#000000;cursor:default;font-size:0.9em;fill:#000000;" text-anchor="end" transform="translate(0,0) rotate(-45 401.6327248643506 347)" y="347" opacity="1"><tspan>2010</tspan></text><text x="435.3927248643506" style="color:#000000;cursor:default;font-size:0.9em;fill:#000000;" text-anchor="end" transform="translate(0,0) rotate(-45 435.3927248643506 347)" y="347" opacity="1"><tspan>2012</tspan></text><text x="469.15272486435066" style="color:#000000;cursor:default;font-size:0.9em;fill:#000000;" text-anchor="end" transform="translate(0,0) rotate(-45 469.15272486435066 347)" y="347" opacity="1"><tspan>2014</tspan></text></g><g class="highcharts-axis-labels highcharts-yaxis-labels "><text x="38" style="color:#000000;cursor:default;font-size:0.9em;fill:#000000;" text-anchor="end" transform="translate(0,0)" y="336" opacity="1"><tspan>0%</tspan></text><text x="38" style="color:#000000;cursor:default;font-size:0.9em;fill:#000000;" text-anchor="end" transform="translate(0,0)" y="275" opacity="1"><tspan>25%</tspan></text><text x="38" style="color:#000000;cursor:default;font-size:0.9em;fill:#000000;" text-anchor="end" transform="translate(0,0)" y="215" opacity="1"><tspan>50%</tspan></text><text x="38" style="color:#000000;cursor:default;font-size:0.9em;fill:#000000;" text-anchor="end" transform="translate(0,0)" y="155" opacity="1"><tspan>75%</tspan></text><text x="38" style="color:#000000;cursor:default;font-size:0.9em;fill:#000000;" text-anchor="end" transform="translate(0,0)" y="95" opacity="1"><tspan>100%</tspan></text></g><g class="highcharts-axis-labels highcharts-yaxis-labels "></g><text x="10" class="highcharts-credits" text-anchor="start" style="cursor:default;color:#000000;font-size:0.8em;fill:#000000;" y="400"><tspan>Quelle: Statistisches Amt Basel-Stadt; Statistisches Amt Basel-Landschaft</tspan></text></svg>
